www/assets/icons/description.svg

<svg xmlns="http://www.w3.org/2000/svg" width="24" height="24" viewBox="0 0 24 24" fill='currentColor'><path d="M14 2H6c-1.1 0-1.99.9-1.99 2L4 20c0 1.1.89 2 1.99 2H18c1.1 0 2-.9 2-2V8zm2 16H8v-2h8zm0-4H8v-2h8zm-3-5V3.5L18.5 9z"/></svg>

<svg width="24" height="24" viewBox="0 0 24 24" xmlns="http://www.w3.org/2000/svg" fill='currentColor'><path d="M14 2H6C4.9 2 4.01 2.9 4.01 4L4 20C4 21.1 4.89 22 5.99 22H18C19.1 22 20 21.1 20 20V8L14 2ZM16 18H8V16H16V18ZM16 14H8V12H16V14ZM13 9V3.5L18.5 9H13Z"/></svg>
